X: 14219
T: Fully Zested Lemon, The
R: polka
M: 2/4
K: Gmajor
D|G>D GB|dB AG|E>D EF|GF ED|
G>D GB|dB AG|BE/E/ EF|G2 G:|
|:D|E>B, EF|GF ED-|DB, Dd|BA FD|
E>B, EF|GF ED|BE/E/ EF|G2 G:|

